X: 12168
T: Exile Of Erin, The
R: reel
M: 4/4
K: Dmixolydian
|:FGAG FDDF-|FGAG FDDd|de=fe dcAG|FGAB cBAG|
FGAG FDDF-|FGAG FDDC|A,DD/D/D CDA,D|1 G,A,CD EFDF:|2 G,A,CD EFDd||
|:dfed cAAd|cAGA FAEA|dfed ^cdef|gfge fde^c|
dfed cAAd|cAGA FAEA|DAAB cAdB|1 cAGE D3d:|2 cAGE D3F||

